X: 33479
T: Ragged Hank Of Yarn, The
R: reel
M: 4/4
K: Dmixolydian
D2AD (3EFG AB|cAdB cAGE|D2AD (3EFG AB|1 cAGE EDCE:|2 cAGE EDFA||
~d3e dc~A2|(3Bcd ed cA~G2|Adde dcAB|cAGE EDFA|
~d3e dc~A2|(3Bcd ed cA~G2|Adde =f^fed|cAGE EDCE||
The pipes have the last bar turnaround back into the Apart as|cAGE EDAF||

